static/social/twitter.svg

<?xml version="1.0" encoding="UTF-8"?>
<svg width="30px" height="30px" viewBox="0 0 30 30" version="1.1" xmlns="http://www.w3.org/2000/svg" xmlns:xlink="http://www.w3.org/1999/xlink">
    <!-- Generator: sketchtool 52.1 (67048) - http://www.bohemiancoding.com/sketch -->
    <title>EC2BB00E-E060-4D62-AEC8-D9F4716A4A11</title>
    <desc>Created with sketchtool.</desc>
    <defs>
        <path d="M21.6924697,11.5678573 C21.6985116,11.7151271 21.7015325,11.8654179 21.7015325,12.0164639 C21.7015325,16.5772978 18.2289853,21.8367195 11.8775015,21.8367195 C9.92749784,21.8367195 8.11343554,21.2680313 6.58485015,20.2854771 C6.8559777,20.317952 7.13012616,20.3353223 7.40805078,20.3353223 C9.02726376,20.3353223 10.5143115,19.7840044 11.6970016,18.8573372 C10.1865417,18.8278832 8.91246881,17.8309796 8.47292498,16.4587267 C8.68212368,16.5002644 8.89811944,16.5206556 9.1216675,16.5206556 C9.43508792,16.5206556 9.74095604,16.4798732 10.0309643,16.3998188 C8.45177855,16.0841327 7.26002571,14.6892229 7.26002571,13.0163884 C7.26002571,13.0012838 7.26002571,12.9869345 7.26380186,12.9718299 C7.72600258,13.231629 8.26070537,13.3849407 8.82712782,13.4023109 C7.9004607,12.7860433 7.28947968,11.7272108 7.28947968,10.5294161 C7.28947968,9.89804378 7.46091687,9.30518824 7.75621178,8.79465276 C9.45774482,10.8836189 12.0043802,12.2581375 14.871233,12.4023864 C14.812325,12.1486292 14.7836263,11.8865644 14.7836263,11.6146816 C14.7836263,9.70923628 16.3288267,8.16328049 18.2350271,8.16328049 C19.2289097,8.16328049 20.1261229,8.58243313 20.7544742,9.25156691 C21.542179,9.09825522 22.2823043,8.81202305 22.9491723,8.41401684 C22.6893732,9.22211294 22.1440972,9.89804378 21.4296497,10.325504 C22.1289926,10.2431839 22.7958607,10.0573973 23.4121283,9.78324882 C22.9521933,10.473529 22.3653796,11.080734 21.6924697,11.5678573 M14.9981119,0 C6.72985424,0 0,6.72985424 0,14.9988672 C0,23.270901 6.72985424,30 14.9981119,30 C23.2701458,30 30,23.270901 30,14.9988672 C30,6.72985424 23.2701458,0 14.9981119,0" id="path-1"></path>
    </defs>
    <g id="Templates" stroke="none" stroke-width="1" fill="none" fill-rule="evenodd">
        <g id="Poem-a-day" transform="translate(-1008.000000, -3266.000000)">
            <g id="modules/engagment" transform="translate(0.000000, 3139.000000)">
                <g id="Engagment">
                    <g id="Follow" transform="translate(934.000000, 54.000000)">
                        <g id="icons/social/facebook-2-copy" transform="translate(74.000000, 73.000000)">
                            <mask id="mask-2" fill="white">
                                <use xlink:href="#path-1"></use>
                            </mask>
                            <use id="Fill-1" fill="#212B36" xlink:href="#path-1"></use>
                            <g id="Color" mask="url(#mask-2)" fill="#007AB3">
                                <rect id="color/main" x="0" y="0" width="30" height="30" rx="4"></rect>
                            </g>
                        </g>
                    </g>
                </g>
            </g>
        </g>
    </g>
</svg>

<svg width="30" height="30" xmlns="http://www.w3.org/2000/svg" xmlns:xlink="http://www.w3.org/1999/xlink">
  <defs>
    <path d="M21.692 11.568c.007.147.01.297.01.448 0 4.561-3.473 9.82-9.824 9.82a9.749 9.749 0 0 1-5.293-1.55 6.925 6.925 0 0 0 5.112-1.428 3.457 3.457 0 0 1-3.224-2.4 3.417 3.417 0 0 0 1.558-.059 3.453 3.453 0 0 1-2.771-3.383c0-.015 0-.03.004-.044.462.26.997.413 1.563.43a3.457 3.457 0 0 1-1.07-4.608 9.802 9.802 0 0 0 7.114 3.608 3.469 3.469 0 0 1-.087-.787 3.452 3.452 0 0 1 5.97-2.363 6.82 6.82 0 0 0 2.195-.838 3.464 3.464 0 0 1-1.52 1.912 6.842 6.842 0 0 0 1.983-.543 7.011 7.011 0 0 1-1.72 1.785M14.998 0C6.73 0 0 6.73 0 14.999 0 23.27 6.73 30 14.998 30 23.27 30 30 23.27 30 14.999 30 6.729 23.27 0 14.998 0" id="a"/>
  </defs>
  <g fill="none" fill-rule="evenodd">
    <mask id="b" fill="#fff">
      <use xlink:href="#a"/>
    </mask>
    <use fill="#212B36" xlink:href="#a"/>
    <g mask="url(#b)" fill="#00B4F0">
      <rect width="30" height="30" rx="4"/>
    </g>
  </g>
</svg>
